public/icons/users-three-of-four.svg

<svg width="24" height="24" viewBox="0 0 24 24" xmlns="http://www.w3.org/2000/svg"><g fill="none" fill-rule="evenodd"><path d="M6.000005 2C7.929995 2 9.500005 3.57 9.500005 5.5 9.500005 6.513 9.060995 7.418 8.370995 8.059 9.848995 8.593 11.000005 9.62 11.000005 11L11.000005 11 9.000005 11C9.000005 10.402 7.586995 9.643 6.000005 9.643 4.412995 9.643 3.000005 10.402 3.000005 11L3.000005 11 1.000005 11C1.000005 9.62 2.151005 8.593 3.629005 8.059 2.939005 7.418 2.500005 6.513 2.500005 5.5 2.500005 3.57 4.069995 2 6.000005 2ZM5.999995 4C5.172995 4 4.499995 4.673 4.499995 5.5 4.499995 6.327 5.172995 7 5.999995 7 6.826995 7 7.499995 6.327 7.499995 5.5 7.499995 4.673 6.826995 4 5.999995 4ZM6.000005 13C7.930005 13 9.500005 14.57 9.500005 16.5 9.500005 17.513 9.061005 18.418 8.371005 19.059 9.849005 19.593 11.000005 20.62 11.000005 22L11.000005 22 9.000005 22C9.000005 21.403 7.587005 20.643 6.000005 20.643 4.413005 20.643 3.000005 21.402 3.000005 22L3.000005 22 1.000005 22C1.000005 20.62 2.151005 19.593 3.629005 19.059 2.939005 18.418 2.500005 17.513 2.500005 16.5 2.500005 14.57 4.070005 13 6.000005 13ZM6.000005 15C5.173005 15 4.500005 15.673 4.500005 16.5 4.500005 17.327 5.173005 18 6.000005 18 6.827005 18 7.500005 17.327 7.500005 16.5 7.500005 15.673 6.827005 15 6.000005 15Z" /><polygon points="6.96306667 0 4 2.96306667 1.03693333 0 0 1.03693333 2.96306667 4 0 6.96306667 1.03693333 8 4 5.03693333 6.96306667 8 8 6.96306667 5.03693333 4 8 1.03693333" transform="translate(14 13.5)" /><path d="M17.999995,2 C19.929985,2 21.499995,3.57 21.499995,5.5 C21.499995,6.513 21.060985,7.418 20.370985,8.059 C21.848985,8.593 22.999995,9.62 22.999995,11 L22.999995,11 L20.999995,11 C20.999995,10.402 19.586985,9.643 17.999995,9.643 C16.412985,9.643 14.999995,10.402 14.999995,11 L14.999995,11 L12.999995,11 C12.999995,9.62 14.150995,8.593 15.628995,8.059 C14.938995,7.418 14.499995,6.513 14.499995,5.5 C14.499995,3.57 16.069985,2 17.999995,2 Z M17.999985,4 C17.172985,4 16.499985,4.673 16.499985,5.5 C16.499985,6.327 17.172985,7 17.999985,7 C18.826985,7 19.499985,6.327 19.499985,5.5 C19.499985,4.673 18.826985,4 17.999985,4 Z" /></g></svg>

<svg xmlns="http://www.w3.org/2000/svg" viewBox="0 0 24 24"><path d="M6 2c1.93 0 3.5 1.57 3.5 3.5a3.483 3.483 0 0 1-1.129 2.559C9.849 8.593 11 9.62 11 11H9c0-.598-1.413-1.357-3-1.357S3 10.402 3 11H1c0-1.38 1.151-2.407 2.629-2.941A3.483 3.483 0 0 1 2.5 5.5C2.5 3.57 4.07 2 6 2Zm0 2c-.827 0-1.5.673-1.5 1.5S5.173 7 6 7s1.5-.673 1.5-1.5S6.827 4 6 4Zm0 9c1.93 0 3.5 1.57 3.5 3.5a3.483 3.483 0 0 1-1.129 2.559C9.849 19.593 11 20.62 11 22H9c0-.597-1.413-1.357-3-1.357S3 21.402 3 22H1c0-1.38 1.151-2.407 2.629-2.941A3.483 3.483 0 0 1 2.5 16.5C2.5 14.57 4.07 13 6 13Zm0 2c-.827 0-1.5.673-1.5 1.5S5.173 18 6 18s1.5-.673 1.5-1.5S6.827 15 6 15ZM20.963 13.5 18 16.463 15.037 13.5 14 14.537l2.963 2.963L14 20.463l1.037 1.037L18 18.537l2.963 2.963L22 20.463 19.037 17.5 22 14.537zM18 2c1.93 0 3.5 1.57 3.5 3.5a3.483 3.483 0 0 1-1.129 2.559C21.849 8.593 23 9.62 23 11h-2c0-.598-1.413-1.357-3-1.357s-3 .759-3 1.357h-2c0-1.38 1.151-2.407 2.629-2.941A3.483 3.483 0 0 1 14.5 5.5C14.5 3.57 16.07 2 18 2Zm0 2c-.827 0-1.5.673-1.5 1.5S17.173 7 18 7s1.5-.673 1.5-1.5S18.827 4 18 4Z"/></svg>
